X:1
T:James Gibb editions
T:Suscipe verbum - Porta
T:#
%%score [ 1 2 3 4 ]
L:1/8
Q:1/4=100
M:4/4
K:F
V:1 treble-8 nm="T I" snm="T I"
V:2 treble-8 nm="T II" snm="T II"
V:3 treble-8 nm="T III" snm="T III"
V:4 bass nm="B" snm="B"
V:1
"^Suscipe verbum""^Costanzo Porta\n(c.1529-1601)" B6 F2 | F4 (G3 A | B2) F2 z2 f2 | f2 d2 (f3 e | %4
w: Su- sci-|pe ver\- *|* bum, Vir-|go Ma- ri\- *|
 dc B4 AG | A2 B2) F4 |[M:4/4][K:treble-8] z8 | z2 f2 f2 d2 | (f3 e dc f2- | f2 e2) f4 | %10
w: |* * a,||Vir- go Ma-|ri\- * * * *|* * a,|
 z2 F4 (A2- | ABcd ef g2) | d2 B2 (d3 e | fd f4) f2 | z4 z2 f2 | f2 f2 (e3 d/c/ | d8) | z4 B4 | %18
w: Quod ti\-||bi, quod ti\- *|* * * bi|a|Do- mi- no, * *||a|
 B2 B2 A4 | z8 | z4 z2 G2 | d3 d d2 d2 | c2 A2 c4- | c8 | z2 B2 B2 B2 | A4 z2 G2 | d3 d d2 d2 | %27
w: Do- mi- no||per|an- ge- lum tras-|mis- sum est,||a Do- mi-|no per|an- ge- lum tras-|
 (cA B4) A2 | (B3 A/G/ F4) | z8 | z4 z2 B2 | (d3 e f2) d2 | _e4 d2 f2- | ff f2 f2 d2 | z8 | z8 | %36
w: mis\- * * sum|est. * * *||Con-|ci\- * * pi-|es et pa\-|* ri- es De- um,|||
 z2 F2 G2 A2 | B2 (d3 c B2 | dc d4 ^c2) | d4 z4 ||[M:3/4] A4 A2 | A2 A2 (B2- | %42
w: et pa- ri-|es De\- * *||um,|pa- ri-|ter et ho\-|
[M:3/4][K:treble-8] BG c2) c2 | d4 z2 | f4 f2 | f4 d2 | B4 A2 ||[M:4/4] B8- | %48
w: * * * mi-|nem,|pa- ri-|ter et|ho- mi-|nem,|
[M:4/4][K:treble-8] B4 z4 | z4 z2 B2 | A2 (d3 c BA | G4) F2 B2 | A2 d2 d4 | z8 | z8 | z4 d4 | %56
w: |in-|ter o\- * * *|* mnes mu-|li- e- res,|||in-|
 c2 (f3 _e dc | B2 A2) (GABG | c2) B4 A2 | B8- | B8 | z4 z2 d2 | f6 f2 | f4 g2 d2 | f4 f4 | %65
w: ter om\- * * *|* nes mu\- * * *|* li- e-|res,||ut|be- ne-|di- cta di-|ca- ris|
 z4 z2 d2 | c2 (f_edc B2) | A2 (d3 c BA | GA B2)[Q:1/4=98] A4 | %69
w: in-|ter o\- * * * *|mnes, o\- * * *|* * * mnes|
[Q:1/4=96] f4[Q:1/4=94] (d3[Q:1/4=93] e |[Q:1/4=93] f[Q:1/4=92]c[Q:1/4=91] f4)[Q:1/4=89] f2 | %71
w: mu- li\- *|* * * e-|
[Q:1/4=86] !fermata!f8 |] %72
w: res.|
V:2
 z8 | z8 | z4 d3 d | d2 f4 (B2- | Bcde f3 e/d/ | c2) f4 F2 |[M:4/4][K:treble-8] F2 (A3 B cA | %7
w: ||Vir- go|Ma- ri- a,||* su- sci-|pe ver\- * * *|
 d3 c B2) A2 | z8 | z2 c4 F2 | F4 (A3 B | c2) A2 z2 G2- | GG G2 B4 | A8 | z2 F2 (A3 B | %15
w: * * * bum,||su- sci-|pe ver\- *|* bum, Vir\-|* go Ma- ri-|a,|Quod ti\- *|
 cA c3 d ef | g2) g2 z2 f2 | f2 f2 d4 | z4 z2 F2 | (A3 B cA B2- | Bcde f2) d2 | z2 f2 f4- | %22
w: |* bi a|Do- mi- no,|quod|ti\- * * * *|* * * * * bi|a Do\-|
 f2 f2 e4 | z4 e4 | g3 g f2 d2 | e2 f2 d4 | z8 | z8 | z4 z2 B2 | (d3 e f2) d2 | B4 A2 (d2- | %31
w: * mi- no|per|an- ge- lum tras-|mis- sum est.|||Con-|ci\- * * pi-|es et pa\-|
 dc/B/ A4 GF | c3) c d4 | z2 B2 (d3 e | f2) d2 d2 c2 | (d3 c B2 AG | A2 B2 c4 | d4 G4 | z8 | z8 || %40
w: |* ri- es,|con- ci\- *|* pi- es et|pa\- * * * *|* ri- es|De- um,|||
[M:3/4] d6 | c2 c2 Bc |[M:3/4][K:treble-8] de f2) f2- | ff d2 z2 | A4 A2 | A2 A2 B2- | BG c4 || %47
w: pa-|ri- ter et *|* * * ho\-|* mi- nem,|pa- ri-|ter et ho\-|* mi- nem,|
[M:4/4] z2 d2 f2 f2 |[M:4/4][K:treble-8] f4 g2 d2 | f4 d4 | z8 | B4 A2 (d2- | dcBA BA AG/F/ | %53
w: Ut be- ne-|di- cta di-|ca- ris||in- ter o\-||
 G4) F2 B2 | A2 d2 (Bcde | f4) z4 | z2 d2 c2 (f2- | f_edc B4) | A2 d2 c3 c | d4 z2 d2 | f2 f2 f4 | %61
w: * mnes mu-|li- e- res, * * *||in- ter o\-||mnes mu- li- e-|res, ut|be- ne- di-|
 g2 d2 f4 | d4 z4 | z4 B4 | A2 (d3 c BA | G4) F2 B2 | A2 d2 (Bcd_e | f4) z4 | z2 d2 c2 (f2- | %69
w: cta di- ca-|ris|in-|ter o\- * * *|* mnes mu-|li- e- res, * * *||in- ter o\-|
 f_edc B4) | A2 d2 c3 c | !fermata!d8 |] %72
w: |mnes mu- li- e-|res.|
V:3
 z8 | z8 | f6 B2 | B4 (d3 e | f4) c4 | z2 d3 d d2 |[M:4/4][K:treble-8] f4 c2 f2 | f2 d2 (f3 e | %8
w: ||Su- sci-|pe ver\- *|* bum,|Vir- go Ma-|ri- a, Vir-|go Ma- ri\- *|
 dc B3 A AG/F/ | G2) (A3 B cd | c4) z2 F2 | (A3 B cA B2 | B2 (d3 e f2- | f2) d2 d2 d2 | c4 F4) | %15
w: |* a, * * *|* Quod|ti\- * * * *|* bi * *|* a Do- mi-|no, *|
 z8 | z2 B2 B2 B2 | A4 z2 B2 | (d3 e fd f2) | c2 c2 (efgd | f4) d2 B2 | B2 B2 A4 | A2 c4 A2 | %23
w: |a Do- mi-|no, quod|ti\- * * * *|bi, quod ti\- * * *|* bi a|Do- mi- no,|a Do- mi-|
 A4 z2 A2 | d3 d d2 d2 | c2 A2 B4- | B4 z2 B2 | A2 d2 c4 | z8 | z8 | F2 G2 A2 B2- | B2 (d3 c B2- | %32
w: no per|an- ge- lum tras-|mis- sum est,|* tras-|mis- sum est.|||et pa- ri- es|* De\- * *|
 BA/G/ A2) B4 | z4 z2 B2 | (d3 e f2) g2 | f2 B2 d2 e2 | f2 d2 _e3 e | d2 (BA Bcde | f4) e4 | z8 || %40
w: * * * * um,|con-|ci\- * * pi-|es et pa- ri-|es et pa- ri-|es De\- * * * * *|* um,||
[M:3/4] f4 f2 | f4 d2 |[M:3/4][K:treble-8] B4 A2 | B4 z2 | d6 | c2 c2 (Bc | de f4) || %47
w: pa- ri-|ter et|ho- mi-|nem,|pa-|ri- ter et *||
[M:4/4] (f3 e dc d2- |[M:4/4][K:treble-8] d2 d2 d4 | z2 d2 f4- | f2 f2 f4 | g2 d2 f4- | f4 f4 | %53
w: ho\- * * * *|* mi- nem,|Ut be\-|* ne- di-|cta di- ca\-|* ris|
 z4 z2 d2 | c2 fedc B2) | A2 (d3 c B2) | G2 F2 A4 | z4 z2 d2 | f2 f2 f4- | f2 g2 d2 (fe | %60
w: in-|ter o\- * * * *|mnes mu\- * *|li- e- res,|ut|be- ne- di\-|* cta di- ca\- *|
 dc d2) d4- | d4 z4 | z2 B2 A2 (d2- | dcBA G4) | F2 B2 A2 d2 | (Bcde f4) | z8 | z4 d4 | %68
w: * * * ris||in- ter o\-||mnes mu- li- e-|res, * * * *||in-|
 c2 (f3 _e dc | B2) A2 (GABG | c2) B4 A2 | !fermata!B8 |] %72
w: ter o\- * * *|* mnes mu\- * * *|* li- e-|res.|
V:4
 z8 | z8 | z8 | z8 | z4 F,4- | F,2 B,,2 B,,4 |[M:4/4] (D,3 E, F,4) | B,,4 z2 D,2 | D,2 D,2 F,4 | %9
w: ||||Su\-|* sci- pe|ver\- * *|bum, Vir-|go Ma- ri-|
 C,4 z2 A,2- | A,A, A,2 C4 | F,4 z4 | z4 z2 B,,2 | (D,3 E, F,D, F,2 | F,G,A,B, C4) | %15
w: a, Vir\-|* go Ma- ri-|a,|Quod|ti\- * * * *||
 F,2 A,2 A,2 A,2 | G,4 z4 | D,4 G,3 G, | G,2 G,2 F,2 D,2 | F,4 z4 | z8 | B,,2 (D,3 E, F,D, | %22
w: bi a Do- mi-|no|per an- ge-|lum tras- mis- sum|est,||quod ti\- * * *|
 F,3 G, A,B, C2) | F,2 A,2 A,2 A,2 | G,4 z4 | z2 D,2 G,3 G, | G,2 G,2 F,2 D,2 | F,8 | %28
w: |bi a Do- mi-|no,|per an- ge-|lum tras- mis- sum|est.|
 z2 B,,2 (D,3 E, | F,2) G,2 F,2 B,,2 | D,2 E,2 F,2 (G,2- | G,2 F,E, D,4) | C,4 z2 B,,2 | %33
w: Con- ci\- *|* pi- es et|pa- ri- es De\-||um, con-|
 (D,3 E, F,2) G,2 | F,2 B,,2 D,2 E,2 | F,2 (G,4 F,E, | D,4 C,2 C,2 | G,6 G,2 | D,4 A,4 | D,4 z4 || %40
w: ci\- * * pi-|es et pa- ri-|es De\- * *|* um, et|pa- ri-|es De-|um,|
[M:3/4] D,4 D,2 | F,2 F,2 G,2- |[M:3/4] G,G, F,4 | z6 | D,4 D,2 | F,4 G,2- | G,2 F,3 F, || %47
w: pa- ri-|ter et ho\-|* mi- nem,||pa- ri-|ter et|* ho- mi-|
[M:4/4] B,,8- |[M:4/4] B,,8 | B,,8 | z8 | z4 z2 B,,2 | D,2 D,2 D,4 | _E,2 B,,2 D,3 =E, | %54
w: nem,||||Ut|be- ne- di-|cta di- ca\- *|
 F,2 D,2 z2 G,2 | F,2 (B,3 A, G,F, | _E,2) B,,2 F,3 E, | D,4 G,4) | F,6 F,2 | B,,8- | B,,8 | B,,8 | %62
w: * ris in-|ter o\- * * *|* mnes mu\- *||li- e-|res,|||
 z8 | z4 z2 B,,2 | D,2 D,2 D,4 | _E,2 B,,2 (D,3 =E, | F,2 D,2 z2 G,2 | F,2 (B,3 A, G,F, | %68
w: |ut|be- ne- di-|cta di- ca\- *|* ris in-|ter o\- * * *|
 _E,2) B,,2 F,3 E, | D,4 G,4) | F,6 F,2 | !fermata!B,,8 |] %72
w: * mnes mu\- *||li- e-|res.|

